server/website/public/icons/base/workflow.svg

<svg width="48" height="48" viewBox="0 0 48 48" fill="none" xmlns="http://www.w3.org/2000/svg">
<g clip-path="url(#clip0_1319_12239)">
<path fill-rule="evenodd" clip-rule="evenodd" d="M3.42815 0C2.9735 0 2.53746 0.180612 2.21597 0.502103C1.89448 0.823594 1.71387 1.25963 1.71387 1.71429V12C1.71387 12.4547 1.89448 12.8907 2.21597 13.2122C2.53746 13.5337 2.9735 13.7143 3.42815 13.7143H13.7139C14.1685 13.7143 14.6046 13.5337 14.926 13.2122C15.2475 12.8907 15.4282 12.4547 15.4282 12V9.42857H32.571V11.7943L11.7939 32.5714H3.42815C2.9735 32.5714 2.53746 32.752 2.21597 33.0735C1.89448 33.395 1.71387 33.8311 1.71387 34.2857V44.5714C1.71387 45.0261 1.89448 45.4621 2.21597 45.7836C2.53746 46.1051 2.9735 46.2857 3.42815 46.2857H13.7139C14.1685 46.2857 14.6046 46.1051 14.926 45.7836C15.2475 45.4621 15.4282 45.0261 15.4282 44.5714V42H35.9996V46.2857C35.999 46.6252 36.0992 46.9572 36.2875 47.2397C36.4758 47.5222 36.7438 47.7424 37.0574 47.8724C37.371 48.0024 37.7162 48.0364 38.0491 47.97C38.3821 47.9036 38.6878 47.7398 38.9276 47.4994L45.7847 40.6423C45.9444 40.483 46.071 40.2939 46.1574 40.0856C46.2439 39.8773 46.2884 39.6541 46.2884 39.4286C46.2884 39.2031 46.2439 38.9798 46.1574 38.7715C46.071 38.5633 45.9444 38.3741 45.7847 38.2149L38.9276 31.3577C38.6878 31.1173 38.3821 30.9536 38.0491 30.8872C37.7162 30.8208 37.371 30.8547 37.0574 30.9847C36.7438 31.1147 36.4758 31.3349 36.2875 31.6174C36.0992 31.8999 35.999 32.2319 35.9996 32.5714V36.8571H15.4282V36.2057L37.9196 13.7143H44.571C45.0257 13.7143 45.4617 13.5337 45.7832 13.2122C46.1047 12.8907 46.2853 12.4547 46.2853 12V1.71429C46.2853 1.25963 46.1047 0.823594 45.7832 0.502103C45.4617 0.180612 45.0257 0 44.571 0L34.2853 0C33.8306 0 33.3946 0.180612 33.0731 0.502103C32.7516 0.823594 32.571 1.25963 32.571 1.71429V4.28571H15.4282V1.71429C15.4282 1.25963 15.2475 0.823594 14.926 0.502103C14.6046 0.180612 14.1685 0 13.7139 0L3.42815 0Z" fill="black"/>
</g>
<defs>
<clipPath id="clip0_1319_12239">
<rect width="48" height="48" fill="white"/>
</clipPath>
</defs>
</svg>

<svg width="48" height="48" fill="none" xmlns="http://www.w3.org/2000/svg"><g clip-path="url(#prefix__clip0_1319_12239)"><path fill-rule="evenodd" clip-rule="evenodd" d="M3.428 0a1.714 1.714 0 00-1.714 1.714V12a1.714 1.714 0 001.714 1.714h10.286A1.714 1.714 0 0015.428 12V9.429h17.143v2.365L11.794 32.571H3.428a1.714 1.714 0 00-1.714 1.715V44.57a1.714 1.714 0 001.714 1.715h10.286a1.714 1.714 0 001.714-1.715V42H36v4.286a1.715 1.715 0 002.928 1.213l6.857-6.857a1.713 1.713 0 000-2.427l-6.857-6.857A1.714 1.714 0 0036 32.57v4.286H15.428v-.651L37.92 13.714h6.651A1.714 1.714 0 0046.285 12V1.714A1.714 1.714 0 0044.571 0H34.285a1.714 1.714 0 00-1.714 1.714v2.572H15.428V1.714A1.714 1.714 0 0013.714 0H3.428z" fill="#000"/></g><defs><clipPath id="prefix__clip0_1319_12239"><path fill="#fff" d="M0 0h48v48H0z"/></clipPath></defs></svg>
